!!!COM: Scarlatti, Domenico
!!!CDT: 1685///-1757///
!!!OTL: Sonata in B-flat Major, K.360, L.400
!!!SCT: K. 260
!!!SCT: L. 400
!!!OMD: Allegro
**kern	**kern	**dynam
*staff2	*staff1	*staff1
*Icemba	*Icemba	*Icemba
*>[A,A,B,B]	*>[A,A,B,B]	*>[A,A,B,B]
*>norep[A,B]	*>norep[A,B]	*>norep[A,B]
*>A	*>A	*>A
*clefF4	*clefG2	*clefG2
*k[b-e-]	*k[b-e-]	*k[b-e-]
*M2/2	*M2/2	*M2/2
*MM144	*MM144	*MM144
=1-	=1-	=1-
1r	2bb-^\	f
.	2ff^\	.
=2	=2	=2
1r	2dd^\	.
.	(4b-/	.
.	8a/L	.
.	8g/J	.
=3	=3	=3
1r	4f/)	.
.	(8cc/L	p
.	8a/J	<
.	4f/)	(
.	(8dd\L	(
.	8b-\J	(
=4	=4	=4
1r	4f/)	(
.	(8ff\L	(
.	8ee-\J	(
.	4dd\	(
.	8cc\L	(
.	8b-\J	[
=5	=5	=5
2f^\	4a/	f
.	8g/L	.
.	8f/J	.
2d^\	4b-\	.
.	8cc\L	.
.	8dd\J)	.
=6	=6	=6
2B-^\	(4dd\	.
.	8cc\L	.
.	8b-\J	.
.	aq/	.
4E-\	2a/	.
8D\L	.	.
8C\J	.	.
=7	=7	=7
.	gq/LL	.
.	aq/JJ	.
4BB-'/	2b-\)	p
(8F\L	.	.
8D\J	.	.
4BB-'/)	2b-\	.
(8G\L	.	.
8E-\J	.	.
=8	=8	=8
4BB-'/)	2b-\	.
(8G\L	.	.
8F\J	.	.
4E-\	4b-'\	.
8D\L	4cc'\	.
8C\J	.	.
=9	=9	=9
2BB-/)	4dd'\	f
.	8ddd\L	.
.	8bb-\J	.
*clefG2	*	*
(4B-/	4bb-'\	.
4c/	8ddd\L	.
.	8bb-\J	.
=10	=10	=10
4d/	4bb-'\	.
4e-/	8aa\L	.
.	8gg\J	.
4f/	8ff\L	.
.	8ee-\	.
4a/	8dd\	.
.	8cc\J	.
=11	=11	=11
2b-\)	4dd'\	.
.	8ddd\L	p
.	8bb-\J	.
(4B-/	4bb-'\	.
4c/	8ddd\L	.
.	8bb-\J	.
=12	=12	=12
4d/	4bb-'\	.
4e-/	8aa\L	.
.	8gg\J	.
4f/	8ff\L	.
.	8ee-\	.
4a/	8dd\	.
.	8cc\J	.
=13	=13	=13
4b-'\)	4dd'\	.
(8dd\L	4ff\	p
8b-\J	.	.
4b-'\)	4dd'\	.
(8dd\L	4ff\	.
8b-\J	.	.
=14	=14	=14
4b-'\)	4dd'\	.
(8a/L	2ff^\	f
8g/J	.	.
8f/L	.	.
8e-/	.	.
8d/	4aa\	.
8c/J	.	.
=15	=15	=15
4d'/)	4bb-\	.
(8dd\L	4ff\	p
8b-\J	.	.
4b-\)	4dd'\	.
(8dd\L	4ff\	.
8b-\J	.	.
=16	=16	=16
4b-'\)	4dd'\	.
(8a/L	2ff^\	f
8g/J	.	.
8f/L	.	.
8e-/	.	.
8d/	4ee-\ 4aa\	.
8c/J	.	.
=17	=17	=17
2.B-/)	4dd\ 4bb-\	.
.	8ddd\L	.
.	8bb-\J	.
.	4bb-'\	.
(4c/	8ddd\L	.
.	8bb-\J	.
=18	=18	=18
2d/	4bb-'\	.
.	8ddd\L	.
.	8bb-\J	.
2en/	4bb-\	.
.	8aa\L	.
.	8gg\J	.
=19	=19	=19
4f'/)	4aa'\	.
(8a/L	8ccc\L	.
8f/J	8aa\J	.
4f'/)	4aa'\	.
(8a/L	8ccc\L	.
8f/J	8aa\J	.
=20	=20	=20
4f'/)	4aa\	.
*clefF4	*	*
(8en\L	8gg\L	.
8d\J	8ff\J	.
8c\L	4gg'\	.
8B-\	.	.
8A\	4een'\	.
8G\J	.	.
=21	=21	=21
4A'\)	4ff'\	.
*clefG2	*	*
(8a/L	8ccc\L	.
8f/J	8aa\J	.
4f'/)	4aa'\	.
(8a/L	8ccc\L	.
8f/J	8aa\J	.
=22	=22	=22
4f'/)	4aa'\	.
*clefF4	*	*
(8en\L	8gg\L	.
8d\J	8ff\J	.
8c\L	4gg\	.
8B-\	.	.
8A\	8aa\L	.
8G\J	8bb-\J	.
=23	=23	=23
2.F\)	4aa'\	.
.	8ccc\L	.
.	8aa\J	.
.	4aa'\	.
(4G\	8ccc\L	.
.	8aa\J	.
=24	=24	=24
2A\	4aa'\	.
.	8gg\L	.
.	8ff\J	.
2B-\	8gg\L	.
.	8ff\	.
.	8een\	.
.	8dd\J	.
=25	=25	=25
2.c\)	4een'\	.
.	8gg\L	p
.	8ee\J	<
.	4ee'\	(
(4En\	8gg\L	(
.	8ee\J	(
=26	=26	=26
2F\	4aa'\	(
.	8gg\L	(
.	8ff\J	(
2G\	8een\L	(
.	8dd\	(
.	8cc\	(
.	8bn\J	[
=27	=27	=27
2C\)	4cc'\	f
.	8ccc/L	.
.	8cc/J	.
2r	4cc'\	.
.	8cc/L	.
.	8c/J	.
=28	=28	=28
4r	4c'\	.
8c/L	4r	.
8C/J	.	.
4C'\	4r	.
(8C/L	4r	.
8CC/J)	.	.
=29	=29	=29
2CC^\	2r	.
4r	4r	.
4r	(8ccc\L	p
.	8gg\J	.
*clefG2	*	*
=30	=30	=30
2en/ 2cc/	4gg'\)	.
.	8gg'\L	.
.	8gg'\J	.
2f/ 2dd-/	4gg'\	.
.	(8aa-\L	.
.	8ff\J	.
=31	=31	=31
2en/ 2cc/	4ff\	>
.	4gg\)	)
2r	4r	)
.	(8ccc\L	)
.	8gg\J	)
=32	=32	=32
2en/ 2cc/	4gg'\)	)
.	8gg'\L	)
.	8gg'\J	)
2f/ 2dd-/	4gg'\	)
.	(8aa-\L	)
.	8ff\J	]
=33	=33	=33
2en/ 2cc/	4ff\	>
.	4gg\)	)
*clefF4	*	*
(2c\	4r	]
.	8gg'\L	<
.	8gg'\J	(
=34	=34	=34
*	*^	*
2B-\)	4gg'/	2dd-\	(
.	8gg'/L	.	(
.	8gg'/J	.	(
(2en\	4gg/	[2cc\	(
.	8aa-/L	.	(
.	8bb-/J	.	(
=35	=35	=35	=35
2f\)	8aa-/L	2cc\]	(
.	8gg/	.	(
.	8ff/	.	(
.	8een/J	.	[
(2A-\	[2ff/	4cc\	f
.	.	8b-\L	.
.	.	8a-\J	.
=36	=36	=36	=36
2B-\	2ff/]	4g\	.
.	.	8a-\L	.
.	.	8b-\J	.
2c\	2een/	8a-\L	.
.	.	8g\	.
.	.	8f\	.
.	.	8en\J	.
=37	=37	=37	=37
2FF/)	4ff/	2f\	.
.	4gg/	.	.
(2c^\	2r	4r	.
.	.	8gg'\L	p
.	.	8gg'\J	.
=38	=38	=38	=38
2B-\)	4gg'/	2dd-\	<
.	8gg'/L	.	(
.	8gg'/J	.	(
(2en\	4gg/	[2cc\	(
.	8aa-/L	.	(
.	8bb-/J	.	(
=39	=39	=39	=39
2f\)	8aa-/L	2cc\]	(
.	8gg/	.	(
.	8ff/	.	(
.	8een/J	.	[
(2A-\	[2ff/	4cc\	f
.	.	8b-\L	.
.	.	8a-\J	.
=40	=40	=40	=40
2B-\	2ff/]	4g\	.
.	.	8a-\L	.
.	.	8b-\J	.
2c\	2een/	8a-\L	.
.	.	8g\	.
.	.	8f\	.
.	.	8en\J	.
*	*v	*v	*
=41	=41	=41
2F\ 2f\)	4ff'\	f
.	8aan\L	.
.	8cc\J	.
(2A\ 2f\	4cc'\	.
.	8aa\L	.
.	8cc\J	.
=42	=42	=42
2G\) 2f\	4cc'\	.
.	8dd\L	.
.	8b-\J	.
(2G\ 2en\	4b-'\	.
.	8gg\L	.
.	8b-\J	.
=43	=43	=43
2F\) 2f\	4b-'\	.
.	8cc\L	.
.	8a\J	.
(2A\ 2f\	4a'\	.
.	8ff\L	.
.	8cc\J	.
=44	=44	=44
2B-\ 2f\	8cc\L	.
.	8a\	.
.	8b-\	.
.	8g\J	.
2c\	4f'/	.
.	4en'/	.
=45	=45	=45
2F\)	4f'/	.
.	8gg#\L	.
.	8aa\J	.
(2A\ [2f\	4a'\	.
.	8ccc#\L	.
.	8ddd\J	.
=46	=46	=46
*^	*	*
2f/]	2.B-\	4dd'\	.
.	.	8een\L	.
.	.	8ff\J	.
2r	.	[2f/	.
.	8B-\L	.	.
.	8c\J)	.	.
*v	*v	*	*
=47	=47	=47
(1CC	8f/L]	.
.	(8en/	.
.	8f/	.
.	8g/J)	.
.	(4.g/	.
.	8f/)	.
=48	=48	=48
2FF/)	4f'/	.
.	8gg#\L	p
.	8aa\J	.
(2A\ [2f\	4a'\	.
.	8ccc#\L	.
.	8ddd\J	.
=49	=49	=49
*^	*	*
2f/]	2.B-\	4dd'\	.
.	.	8een\L	.
.	.	8ff\J	.
2r	.	[2f/	.
.	8B-\L	.	.
.	8c\J)	.	.
*v	*v	*	*
=50	=50	=50
(1CC	8f/L]	.
.	(8en/	.
.	8f/	.
.	8g/J)	.
.	(4.g/	.
.	8f/)	.
=51	=51	=51
*	*^	*
2.FF/)	2.r	4f'/	.
.	.	8aa\L	<
.	.	8ff\J	(
.	.	8cc\L	(
.	.	8a\	(
(4CC/	4een/	8b-\	(
.	.	8g\J	(
=52	=52	=52	=52
2.FF/)	4ff'/	2a\	(
.	8aa/L	.	(
.	8ff/J	.	(
.	4r	8cc\L	(
.	.	8a\	(
(4CC/	4een/	8b-\	(
.	.	8g\J	(
=53	=53	=53	=53
2.FF/)	4ff'/	2a\	(
.	8aa/L	.	(
.	8ff/J	.	(
.	4r	8cc\L	(
.	.	8a\	(
(4CC/	4een/	8b-\	(
.	.	8g\J	[
*	*v	*v	*
=54	=54	=54
1FF)	1a 1ff	f
=55:|!|:	=55:|!|:	=55:|!|:
*>B	*>B	*>B
1FF	2a\ 2ff\	f
.	4r	.
.	(8cc\L	p
.	8a\J	.
=56	=56	=56
*^	*	*
2f/	1F	4a'\)	.
.	.	(8cc\L	.
.	.	8a\J	.
2en/	.	4a'\)	.
.	.	(8cc\L	.
.	.	8a\J	.
=57	=57	=57	=57
2d/	1G	4cc\	.
.	.	4bn\)	.
2g/	.	4r	.
.	.	(8dd\L	.
.	.	8b\J	.
=58	=58	=58	=58
2g/	1G	4bn'\)	.
.	.	(8dd\L	.
.	.	8b\J	.
2f/	.	4b'\)	.
.	.	(8dd\L	.
.	.	8b\J	.
=59	=59	=59	=59
2en/	1A	4dd\	.
.	.	4cc#\)	.
2a/	.	4r	.
.	.	(8een\L	<
.	.	8cc#\J	(
=60	=60	=60	=60
(2a/	1A	4cc#'\)	(
.	.	(8een\L	(
.	.	8cc#\J	(
2g/	.	4cc#'\)	(
.	.	(8ee\L	(
.	.	8cc#\J)	(
*v	*v	*	*
=61	=61	=61
2B-\ 2f\)	4cc#\	(
.	4dd\	(
(2F\ 2d\	4r	[
.	8ddd\L	mf
.	8cccn\J	.
=62	=62	=62
*	*^	*
2G\) 2d\	4bb-\	2r	.
.	8aa\L	.	.
.	8gg\J	.	.
(2G\	2b-\	4ff/	.
.	.	8een/L	.
.	.	8dd/J	.
*	*v	*v	*
=63	=63	=63
4A\)	2cc#\	.
(8a\L	.	.
8f\J	.	.
4f'\)	2aa\	.
(8a\L	.	.
8f\J	.	.
=64	=64	=64
4f'\)	2dd\	.
(8en\L	.	.
8d\J	.	.
8c#\L	2een\	.
8Bn\	.	.
8A\	.	.
8G\J	.	.
=65	=65	=65
4F'\)	2a/	<
(8f\L	.	(
8d\J	.	(
4d'\)	2a\ 2ff\	(
(8f\L	.	(
8d\J	.	(
=66	=66	=66
4d'\)	2aa\	(
(8c#\L	.	(
8B-\J	.	(
8A\L	2cc#\	(
8G\	.	(
8F\	.	(
8En\J	.	[
=67	=67	=67
2F\)	4dd'\	f
.	8aa\L	mf
.	8dd\J	.
2F\ 2d\	4dd'\	.
.	8aa\L	.
.	8dd\J	.
=68	=68	=68
2F#\ 2d\	4dd'\	.
.	(8aa\L	.
.	8dd\J	.
(2D\ 2d\	4cc\	.
.	8b-\L	.
.	8a\J)	.
=69	=69	=69
2G\) 2d\	4b-'\	.
.	8gg\L	.
.	8b-\J	.
(2Fn\ 2d\	4b-'\	.
.	8gg\L	.
.	8b-\J	.
=70	=70	=70
2En\) 2c\	4b-'\	.
.	8gg\L	.
.	8cc\J	.
(2C\ 2c\	4b-\	.
.	8a\L	.
.	8g\J	.
=71	=71	=71
2F\) 2c\	4a'/	.
.	8ccc\L	f
.	8ff\J	.
(2F\ 2c\	4ff'\	.
.	8ccc\L	.
.	8ff\J	.
=72	=72	=72
2A\) 2f\	4ff'\	.
.	8ccc\L	.
.	8ff\J	.
2A\ 2f\	4ee-\	.
.	8dd\L	.
.	8cc\J	.
=73	=73	=73
*^	*	*
2f/	2.B-\	4dd'\	.
.	.	(8ddd\L	p
.	.	8bb-\J	.
2r	.	4bb-'\)	.
.	4c\	(8ddd\L	.
.	.	8bb-\J	.
*v	*v	*	*
=74	=74	=74
4d'\	4bb-'\)	.
4e-\	(8aa\L	<
.	8gg\J	(
4f\	8ff\L	(
.	8ee-\	(
4A\	8dd\	(
.	8cc\J	[
=75	=75	=75
4B-'\	4dd'\)	f
8d\L	(8ff\L	.
8B-\J	8dd\J	.
4B-'\	4dd'\)	.
8d\L	(8ff\L	.
8B-\J	8dd\J	.
=76	=76	=76
4B-'\	4dd'\)	.
8A\L	2f\ (2ff\	.
8G\J	.	.
8F\L	.	.
8E-\	.	.
8D\	4a\ 4ee-\	.
8C\J	.	.
=77	=77	=77
2.BB-/	4dd'\)	.
.	(8ddd\L	p
.	8bb-\J	.
.	4bb-'\)	.
(4C/	(8ddd\L	.
.	8bb-\J)	.
=78	=78	=78
2D\	8bb-\L	<
.	8aa\	(
.	8gg\	(
.	8ff\J	(
2E-\	8ee-\L	(
.	8dd\	(
.	8cc\	(
.	8b-\J	[
=79	=79	=79
2F\)	4ff'\	f
.	8fff/L	.
.	8ff/J	.
2r	4ff'\	.
.	8ff/L	.
.	8f/J	.
=80	=80	=80
2r	4f'\	.
.	8f/L	.
.	8F/J	.
4F'\	2r	.
(8F/L	.	.
8FF/J)	.	.
=81	=81	=81
2FF^\	2r	.
4r;	4r;	.
4r	(8ff\L	p
.	8cc\J	.
=82	=82	=82
2A\ (2f\	4cc'\)	.
.	8cc'\L	.
.	8cc'\J	.
2B-\ 2g-\	4cc'\	.
.	(8dd-\L	.
.	8b-\J)	.
=83	=83	=83
2A\ 2f\)	4b-\	>
.	4cc\	)
2r	4r	)
.	8ff\L	)
.	8cc\J	)
=84	=84	=84
2A\ (2f\	4cc'\	)
.	8cc'\L	)
.	8cc'\J	)
2B-\ 2g-\	4cc'\	)
.	(8dd-\L	)
.	8b-\J)	]
=85	=85	=85
2A\ 2f\)	4b-\	>
.	4cc\	)
(2F\	4r	]
.	8ccc'\L	<
.	8ccc'\J	(
=86	=86	=86
*	*^	*
2E-\)	4ccc'/	2gg-\	(
.	8ccc'/L	.	(
.	8ccc'/J	.	(
(2An\	4ccc/	[2ff\	(
.	8ddd-/L	.	(
.	8eee-/J	.	(
=87	=87	=87	=87
2B-\)	8ddd-/L	2ff\]	(
.	8ccc/	.	(
.	8bb-/	.	(
.	8aa/J	.	[
(2D-\	2bb-/	4ff\	f
.	.	8ee-\L	.
.	.	8dd-\J	.
=88	=88	=88	=88
2E-\	2bb-/	4cc\	.
.	.	8dd-\L	.
.	.	8ee-\J	.
2F\	2aa/	8dd-\L	.
.	.	8cc\	.
.	.	8b-\	.
.	.	8a\J	.
=89	=89	=89	=89
2BB-/)	4bb-/	2b-\	>
.	4ccc/	.	)
(2F^\	2r	4r	]
.	.	8ccc'\L	p
.	.	8ccc'\J	.
=90	=90	=90	=90
2E-\)	4ccc/	2gg-\	<
.	8ccc'/L	.	(
.	8ccc'/J	.	(
(2An\	4ccc/	2ff\	(
.	8ddd-/L	.	(
.	8eee-/J	.	(
=91	=91	=91	=91
2B-\)	8ddd-/L	2ff\	(
.	8ccc/	.	(
.	8bb-/	.	(
.	8aa/J	.	[
(2D-\	[2bb-/	4ff\	f
.	.	8ee-\L	.
.	.	8dd-\J	.
=92	=92	=92	=92
2E-\	2bb-/]	4cc\	.
.	.	8dd-\L	.
.	.	8ee-\J	.
2F\	2aa/	8dd-\L	.
.	.	8cc\	.
.	.	8b-\	.
.	.	8a\J	.
=93	=93	=93	=93
2BB-/)	4bb-/	2b-\	f
.	8bb-/L	.	.
.	8ff/J	.	.
(2dn\	2r	4ff'\	.
.	.	8ddd\L	.
.	.	8ff\J	.
*	*v	*v	*
=94	=94	=94
2c\)	4ff'\	.
.	8gg\L	.
.	8ee-\J	.
(2F\ 2f\	4ee-'\	.
.	8ccc\L	.
.	8ee-\J	.
=95	=95	=95
2B-\) 2f\	4ee-'\	.
.	8ff\L	.
.	8dd\J	.
(2D\ 2B-\	4dd'\	.
.	8bb-\L	.
.	8ff\J	.
=96	=96	=96
2E-\	8gg\L	.
.	8dd\	.
.	8ee-\	.
.	8cc\J	.
2F\	4b-'\	.
.	4a'\	.
=97	=97	=97
4BB-'/)	2b-\	.
(8a\L	.	.
8b-\J	.	.
4B-'\)	2ff\ 2ddd\	.
(8en\L	.	.
8f\J	.	.
=98	=98	=98
4F'\)	2ee-\ 2ccc\	.
(8A\L	.	.
8B-\J	.	.
4BB-'\)	2dd\ 2bb-\	.
8En\L	.	.
(8F\J	.	.
=99	=99	=99
*	*^	*
2.FF/)	8ccc/L	2cc\	.
.	8bb-/	.	.
.	8aa/	.	.
.	8gg/J	.	.
.	2r	8ff\L	.
.	.	8ee-\	.
(4A\	.	8dd\	.
.	.	8cc\J	.
*	*v	*v	*
=100	=100	=100
4B-\	8dd\L	.
.	8ff\	.
4E-\	8ee-\	.
.	8cc\J	.
4F'\)	4b-'\ 4dd'\	.
4FF'/	4a'\ 4cc'\	.
=101	=101	=101
4BB-'/	2b-\	p
8a\L	.	.
8b-\J	.	.
4B-'\	2ff\ (2ddd\	<
8en\L	.	(
8f\J	.	(
=102	=102	=102
4F'\	2ee-\ 2ccc\	(
8A\L	.	(
8B-\J	.	(
4BB-'\	2dd\ 2bb-\	(
8En\L	.	(
8F\J	.	(
=103	=103	=103
*	*^	*
2.FF/	8ccc/L	2cc\	(
.	8bb-/	.	(
.	8aa/	.	(
.	8gg/J	.	(
.	2r	8ff\L	(
.	.	8ee-\	(
4A\	.	8dd\	(
.	.	8cc\J	(
*	*v	*v	*
=104	=104	=104
4B-\	8dd\L	(
.	8ff\	(
4E-\	8ee-\	(
.	8cc\J	(
4F'\	4b-'\ 4dd'\)	(
4FF'/	4a'\ 4cc'\	[
=105	=105	=105
*	*^	*
2.BB-/	2r	4b-'\	f
.	.	(8ff\L	p
.	.	8dd\J	.
.	8b-/L	4r	.
.	8f/	.	.
4FF/	8cc/	4e-\	.
.	8a/J	.	.
=106	=106	=106	=106
2.BB-/	4b-'/)	2d\	.
.	(8ff\L	.	.
.	8dd\J	.	.
.	8b-/L	4r	.
.	8f/	.	.
4FF/	8cc/	4e-\	.
.	8a/J	.	.
=107	=107	=107	=107
2.BB-/	4b-/)	2d\	.
.	(8ff\L	.	.
.	8dd\J	.	.
.	8b-/L	4r	.
.	8f/	.	.
4FF/	8cc/	4e-\	.
.	8a/J	.	.
*	*v	*v	*
=108	=108	=108
1BB-	1d 1b-)	f
==:|!	==:|!	==:|!
*-	*-	*-
!!!ENC: Craig Stuart Sapp
!!!END: 2006/08/12
